X:1
T:Bee's Wings -- Hornpipe
Z:Bob Puckette <bpuckette:msn.com> 2003-3-10
R:hornpipe
B:Cole's 1000 Fiddle Tunes
M:C|
L:1/8
K:Bb
vFuA|B>fd>a A>ec>A|F>dB>F D>BF>D|\
E>Gc>e D>FB>d|((3cdc) ((3ABG) F2 (GA)|
B>fd>b A>fc>a|E>BG>e D>BF>d|E>Gc>e d>cB>A|B2b2B2:|
|:(vfe)|d>Bf>d b>fd>B|c>Af>c a>fc>A|\
G>EB>E e>cd>B|((3cdc) ((3ABG) F2 (GA)|
B>fd>b A>fc>a|E>BG>e D>BF>d|E>Gc>e d>cB>A|B2b2B2:|
